**kern
*part1
*staff1
*clefC1
1%0r
=2
1%0r
=3
1%0r
=4
1%0r
=5
1%0r
=6
1%0r
=7
1%0r
=8
4r
32ccL
32dd
16ccJ
8g
16eL
16cJ
8g
32ccL
32dd
16ccJ
32ddL
32ee
16ddJ
=9
16eeL
16ccJ
16dd
16g
32ccL
32dd
16ccJ
32ddL
32ee
16ddJ
16eeL
16ccJ
8dd
=-
*-
